images/3234329.svg

<?xml version="1.0" encoding="UTF-8"?>
<svg xmlns="http://www.w3.org/2000/svg" xmlns:xlink="http://www.w3.org/1999/xlink" width="300pt" height="300pt" viewBox="0 0 300 300" version="1.1">
<defs>
<g>
<symbol overflow="visible" id="glyph0-0">
<path style="stroke:none;" d="M 0.453125 1.59375 L 0.453125 -6.34375 L 4.953125 -6.34375 L 4.953125 1.59375 Z M 0.953125 1.09375 L 4.453125 1.09375 L 4.453125 -5.84375 L 0.953125 -5.84375 Z M 0.953125 1.09375 "/>
</symbol>
<symbol overflow="visible" id="glyph0-1">
<path style="stroke:none;" d="M 3.546875 -5.953125 C 2.898438 -5.953125 2.382812 -5.710938 2 -5.234375 C 1.625 -4.753906 1.4375 -4.101562 1.4375 -3.28125 C 1.4375 -2.445312 1.625 -1.789062 2 -1.3125 C 2.382812 -0.832031 2.898438 -0.59375 3.546875 -0.59375 C 4.191406 -0.59375 4.703125 -0.832031 5.078125 -1.3125 C 5.453125 -1.789062 5.640625 -2.445312 5.640625 -3.28125 C 5.640625 -4.101562 5.453125 -4.753906 5.078125 -5.234375 C 4.703125 -5.710938 4.191406 -5.953125 3.546875 -5.953125 Z M 3.546875 -6.6875 C 4.460938 -6.6875 5.195312 -6.375 5.75 -5.75 C 6.300781 -5.132812 6.578125 -4.3125 6.578125 -3.28125 C 6.578125 -2.238281 6.300781 -1.410156 5.75 -0.796875 C 5.195312 -0.179688 4.460938 0.125 3.546875 0.125 C 2.617188 0.125 1.878906 -0.179688 1.328125 -0.796875 C 0.773438 -1.410156 0.5 -2.238281 0.5 -3.28125 C 0.5 -4.3125 0.773438 -5.132812 1.328125 -5.75 C 1.878906 -6.375 2.617188 -6.6875 3.546875 -6.6875 Z M 3.546875 -6.6875 "/>
</symbol>
<symbol overflow="visible" id="glyph0-2">
<path style="stroke:none;" d="M 0.890625 -6.5625 L 2.078125 -6.5625 L 4.984375 -1.078125 L 4.984375 -6.5625 L 5.84375 -6.5625 L 5.84375 0 L 4.65625 0 L 1.75 -5.484375 L 1.75 0 L 0.890625 0 Z M 0.890625 -6.5625 "/>
</symbol>
<symbol overflow="visible" id="glyph0-3">
<path style="stroke:none;" d="M 0.890625 -6.5625 L 1.765625 -6.5625 L 1.765625 -3.875 L 5 -3.875 L 5 -6.5625 L 5.890625 -6.5625 L 5.890625 0 L 5 0 L 5 -3.125 L 1.765625 -3.125 L 1.765625 0 L 0.890625 0 Z M 0.890625 -6.5625 "/>
</symbol>
</g>
</defs>
<g id="surface41909">
<rect x="0" y="0" width="300" height="300" style="fill:rgb(100%,100%,100%);fill-opacity:1;stroke:none;"/>
<path style="fill:none;stroke-width:1.2;stroke-linecap:butt;stroke-linejoin:miter;stroke:rgb(0%,0%,0%);stroke-opacity:1;stroke-miterlimit:10;" d="M 264.75 178.386719 L 260.617188 168.730469 "/>
<path style="fill:none;stroke-width:1.2;stroke-linecap:butt;stroke-linejoin:miter;stroke:rgb(100%,0%,0%);stroke-opacity:1;stroke-miterlimit:10;" d="M 260.617188 168.730469 L 256.480469 159.070312 "/>
<path style="fill:none;stroke-width:1.2;stroke-linecap:butt;stroke-linejoin:miter;stroke:rgb(100%,0%,0%);stroke-opacity:1;stroke-miterlimit:10;" d="M 256.480469 159.070312 L 246.050781 157.824219 "/>
<path style="fill:none;stroke-width:1.2;stroke-linecap:butt;stroke-linejoin:miter;stroke:rgb(0%,0%,0%);stroke-opacity:1;stroke-miterlimit:10;" d="M 246.050781 157.824219 L 235.617188 156.574219 "/>
<path style=" stroke:none;fill-rule:nonzero;fill:rgb(100%,100%,100%);fill-opacity:1;" d="M 252.480469 153.570312 L 260.480469 153.570312 L 260.480469 164.570312 L 252.480469 164.570312 Z M 252.480469 153.570312 "/>
<g style="fill:rgb(100%,0%,0%);fill-opacity:1;">
  <use xlink:href="#glyph0-1" x="252.480469" y="162.233398"/>
</g>
<path style="fill:none;stroke-width:1.2;stroke-linecap:butt;stroke-linejoin:miter;stroke:rgb(0%,0%,0%);stroke-opacity:1;stroke-miterlimit:10;" d="M 235.617188 156.574219 L 223.023438 173.394531 "/>
<path style="fill:none;stroke-width:1.2;stroke-linecap:butt;stroke-linejoin:miter;stroke:rgb(0%,0%,0%);stroke-opacity:1;stroke-miterlimit:10;" d="M 230.398438 155.292969 L 220.324219 168.75 "/>
<path style="fill:none;stroke-width:1.2;stroke-linecap:butt;stroke-linejoin:miter;stroke:rgb(0%,0%,0%);stroke-opacity:1;stroke-miterlimit:10;" d="M 227.347656 137.257812 L 235.617188 156.574219 "/>
<path style="fill:none;stroke-width:1.2;stroke-linecap:butt;stroke-linejoin:miter;stroke:rgb(0%,0%,0%);stroke-opacity:1;stroke-miterlimit:10;" d="M 223.023438 173.394531 L 202.160156 170.894531 "/>
<path style="fill:none;stroke-width:1.2;stroke-linecap:butt;stroke-linejoin:miter;stroke:rgb(0%,0%,0%);stroke-opacity:1;stroke-miterlimit:10;" d="M 202.160156 170.894531 L 193.890625 151.578125 "/>
<path style="fill:none;stroke-width:1.2;stroke-linecap:butt;stroke-linejoin:miter;stroke:rgb(0%,0%,0%);stroke-opacity:1;stroke-miterlimit:10;" d="M 205.878906 167.019531 L 199.261719 151.566406 "/>
<path style="fill:none;stroke-width:1.2;stroke-linecap:butt;stroke-linejoin:miter;stroke:rgb(0%,0%,0%);stroke-opacity:1;stroke-miterlimit:10;" d="M 202.160156 170.894531 L 195.863281 179.304688 "/>
<path style="fill:none;stroke-width:1.2;stroke-linecap:butt;stroke-linejoin:miter;stroke:rgb(100%,0%,0%);stroke-opacity:1;stroke-miterlimit:10;" d="M 195.863281 179.304688 L 189.566406 187.714844 "/>
<path style="fill:none;stroke-width:1.2;stroke-linecap:butt;stroke-linejoin:miter;stroke:rgb(0%,0%,0%);stroke-opacity:1;stroke-miterlimit:10;" d="M 193.890625 151.578125 L 206.484375 134.757812 "/>
<path style="fill:none;stroke-width:1.2;stroke-linecap:butt;stroke-linejoin:miter;stroke:rgb(0%,0%,0%);stroke-opacity:1;stroke-miterlimit:10;" d="M 193.890625 151.578125 L 173.027344 149.082031 "/>
<path style="fill:none;stroke-width:1.2;stroke-linecap:butt;stroke-linejoin:miter;stroke:rgb(0%,0%,0%);stroke-opacity:1;stroke-miterlimit:10;" d="M 206.484375 134.757812 L 227.347656 137.257812 "/>
<path style="fill:none;stroke-width:1.2;stroke-linecap:butt;stroke-linejoin:miter;stroke:rgb(0%,0%,0%);stroke-opacity:1;stroke-miterlimit:10;" d="M 207.984375 139.917969 L 224.675781 141.917969 "/>
<path style="fill:none;stroke-width:1.2;stroke-linecap:butt;stroke-linejoin:miter;stroke:rgb(0%,0%,0%);stroke-opacity:1;stroke-miterlimit:10;" d="M 173.027344 149.082031 L 168.890625 139.421875 "/>
<path style="fill:none;stroke-width:1.2;stroke-linecap:butt;stroke-linejoin:miter;stroke:rgb(0%,0%,100%);stroke-opacity:1;stroke-miterlimit:10;" d="M 168.890625 139.421875 L 164.757812 129.765625 "/>
<path style="fill:none;stroke-width:1.2;stroke-linecap:butt;stroke-linejoin:miter;stroke:rgb(0%,0%,100%);stroke-opacity:1;stroke-miterlimit:10;" d="M 164.757812 129.765625 L 154.324219 128.515625 "/>
<path style="fill:none;stroke-width:1.2;stroke-linecap:butt;stroke-linejoin:miter;stroke:rgb(0%,0%,0%);stroke-opacity:1;stroke-miterlimit:10;" d="M 154.324219 128.515625 L 143.894531 127.269531 "/>
<path style=" stroke:none;fill-rule:nonzero;fill:rgb(100%,100%,100%);fill-opacity:1;" d="M 157.757812 124.265625 L 171.757812 124.265625 L 171.757812 135.265625 L 157.757812 135.265625 Z M 157.757812 124.265625 "/>
<g style="fill:rgb(0%,0%,100%);fill-opacity:1;">
  <use xlink:href="#glyph0-2" x="157.757812" y="132.928711"/>
  <use xlink:href="#glyph0-3" x="164.735352" y="132.928711"/>
</g>
<path style="fill:none;stroke-width:1.2;stroke-linecap:butt;stroke-linejoin:miter;stroke:rgb(0%,0%,0%);stroke-opacity:1;stroke-miterlimit:10;" d="M 143.894531 127.269531 L 139.757812 117.609375 "/>
<path style="fill:none;stroke-width:1.2;stroke-linecap:butt;stroke-linejoin:miter;stroke:rgb(0%,0%,100%);stroke-opacity:1;stroke-miterlimit:10;" d="M 139.757812 117.609375 L 135.625 107.949219 "/>
<path style="fill:none;stroke-width:1.2;stroke-linecap:butt;stroke-linejoin:miter;stroke:rgb(0%,0%,0%);stroke-opacity:1;stroke-miterlimit:10;" d="M 138.523438 127.28125 L 135.214844 119.554688 "/>
<path style="fill:none;stroke-width:1.2;stroke-linecap:butt;stroke-linejoin:miter;stroke:rgb(0%,0%,100%);stroke-opacity:1;stroke-miterlimit:10;" d="M 135.214844 119.554688 L 131.90625 111.828125 "/>
<path style="fill:none;stroke-width:1.2;stroke-linecap:butt;stroke-linejoin:miter;stroke:rgb(0%,0%,0%);stroke-opacity:1;stroke-miterlimit:10;" d="M 131.300781 144.085938 L 143.894531 127.269531 "/>
<path style="fill:none;stroke-width:1.2;stroke-linecap:butt;stroke-linejoin:miter;stroke:rgb(0%,0%,100%);stroke-opacity:1;stroke-miterlimit:10;" d="M 135.625 107.949219 L 125.191406 106.703125 "/>
<path style="fill:none;stroke-width:1.2;stroke-linecap:butt;stroke-linejoin:miter;stroke:rgb(0%,0%,0%);stroke-opacity:1;stroke-miterlimit:10;" d="M 125.191406 106.703125 L 114.761719 105.453125 "/>
<path style=" stroke:none;fill-rule:nonzero;fill:rgb(100%,100%,100%);fill-opacity:1;" d="M 132.625 102.449219 L 139.625 102.449219 L 139.625 113.449219 L 132.625 113.449219 Z M 132.625 102.449219 "/>
<g style="fill:rgb(0%,0%,100%);fill-opacity:1;">
  <use xlink:href="#glyph0-2" x="132.625" y="111.112305"/>
</g>
<path style="fill:none;stroke-width:1.2;stroke-linecap:butt;stroke-linejoin:miter;stroke:rgb(0%,0%,0%);stroke-opacity:1;stroke-miterlimit:10;" d="M 114.761719 105.453125 L 108.464844 113.863281 "/>
<path style="fill:none;stroke-width:1.2;stroke-linecap:butt;stroke-linejoin:miter;stroke:rgb(0%,0%,100%);stroke-opacity:1;stroke-miterlimit:10;" d="M 108.464844 113.863281 L 102.167969 122.273438 "/>
<path style="fill:none;stroke-width:1.2;stroke-linecap:butt;stroke-linejoin:miter;stroke:rgb(0%,0%,0%);stroke-opacity:1;stroke-miterlimit:10;" d="M 117.460938 110.097656 L 112.421875 116.828125 "/>
<path style="fill:none;stroke-width:1.2;stroke-linecap:butt;stroke-linejoin:miter;stroke:rgb(0%,0%,100%);stroke-opacity:1;stroke-miterlimit:10;" d="M 112.421875 116.828125 L 107.382812 123.554688 "/>
<path style="fill:none;stroke-width:1.2;stroke-linecap:butt;stroke-linejoin:miter;stroke:rgb(0%,0%,100%);stroke-opacity:1;stroke-miterlimit:10;" d="M 102.167969 122.273438 L 106.300781 131.929688 "/>
<path style="fill:none;stroke-width:1.2;stroke-linecap:butt;stroke-linejoin:miter;stroke:rgb(0%,0%,0%);stroke-opacity:1;stroke-miterlimit:10;" d="M 106.300781 131.929688 L 110.433594 141.589844 "/>
<path style=" stroke:none;fill-rule:nonzero;fill:rgb(100%,100%,100%);fill-opacity:1;" d="M 99.167969 116.773438 L 106.167969 116.773438 L 106.167969 127.773438 L 99.167969 127.773438 Z M 99.167969 116.773438 "/>
<g style="fill:rgb(0%,0%,100%);fill-opacity:1;">
  <use xlink:href="#glyph0-2" x="99.167969" y="125.436523"/>
</g>
<path style="fill:none;stroke-width:1.2;stroke-linecap:butt;stroke-linejoin:miter;stroke:rgb(0%,0%,0%);stroke-opacity:1;stroke-miterlimit:10;" d="M 110.433594 141.589844 L 131.300781 144.085938 "/>
<path style="fill:none;stroke-width:1.2;stroke-linecap:butt;stroke-linejoin:miter;stroke:rgb(0%,0%,0%);stroke-opacity:1;stroke-miterlimit:10;" d="M 113.109375 136.929688 L 129.800781 138.929688 "/>
<path style="fill:none;stroke-width:1.2;stroke-linecap:butt;stroke-linejoin:miter;stroke:rgb(0%,0%,0%);stroke-opacity:1;stroke-miterlimit:10;" d="M 110.433594 141.589844 L 97.839844 158.410156 "/>
<path style="fill:none;stroke-width:1.2;stroke-linecap:butt;stroke-linejoin:miter;stroke:rgb(0%,0%,0%);stroke-opacity:1;stroke-miterlimit:10;" d="M 97.839844 158.410156 L 76.976562 155.914062 "/>
<path style="fill:none;stroke-width:1.2;stroke-linecap:butt;stroke-linejoin:miter;stroke:rgb(0%,0%,0%);stroke-opacity:1;stroke-miterlimit:10;" d="M 95.167969 163.070312 L 78.476562 161.070312 "/>
<path style="fill:none;stroke-width:1.2;stroke-linecap:butt;stroke-linejoin:miter;stroke:rgb(0%,0%,0%);stroke-opacity:1;stroke-miterlimit:10;" d="M 106.109375 177.726562 L 97.839844 158.410156 "/>
<path style="fill:none;stroke-width:1.2;stroke-linecap:butt;stroke-linejoin:miter;stroke:rgb(0%,0%,0%);stroke-opacity:1;stroke-miterlimit:10;" d="M 76.976562 155.914062 L 64.382812 172.730469 "/>
<path style="fill:none;stroke-width:1.2;stroke-linecap:butt;stroke-linejoin:miter;stroke:rgb(0%,0%,0%);stroke-opacity:1;stroke-miterlimit:10;" d="M 64.382812 172.730469 L 72.652344 192.050781 "/>
<path style="fill:none;stroke-width:1.2;stroke-linecap:butt;stroke-linejoin:miter;stroke:rgb(0%,0%,0%);stroke-opacity:1;stroke-miterlimit:10;" d="M 69.753906 172.71875 L 76.371094 188.171875 "/>
<path style="fill:none;stroke-width:1.2;stroke-linecap:butt;stroke-linejoin:miter;stroke:rgb(0%,0%,0%);stroke-opacity:1;stroke-miterlimit:10;" d="M 64.382812 172.730469 L 53.949219 171.484375 "/>
<path style="fill:none;stroke-width:1.2;stroke-linecap:butt;stroke-linejoin:miter;stroke:rgb(100%,0%,0%);stroke-opacity:1;stroke-miterlimit:10;" d="M 53.949219 171.484375 L 43.519531 170.234375 "/>
<path style="fill:none;stroke-width:1.2;stroke-linecap:butt;stroke-linejoin:miter;stroke:rgb(0%,0%,0%);stroke-opacity:1;stroke-miterlimit:10;" d="M 72.652344 192.050781 L 93.515625 194.546875 "/>
<path style="fill:none;stroke-width:1.2;stroke-linecap:butt;stroke-linejoin:miter;stroke:rgb(0%,0%,0%);stroke-opacity:1;stroke-miterlimit:10;" d="M 93.515625 194.546875 L 106.109375 177.726562 "/>
<path style="fill:none;stroke-width:1.2;stroke-linecap:butt;stroke-linejoin:miter;stroke:rgb(0%,0%,0%);stroke-opacity:1;stroke-miterlimit:10;" d="M 90.816406 189.902344 L 100.894531 176.445312 "/>
<path style="fill:none;stroke-width:1.2;stroke-linecap:butt;stroke-linejoin:miter;stroke:rgb(100%,0%,0%);stroke-opacity:1;stroke-miterlimit:10;" d="M 43.519531 170.234375 L 39.382812 160.578125 "/>
<path style="fill:none;stroke-width:1.2;stroke-linecap:butt;stroke-linejoin:miter;stroke:rgb(0%,0%,0%);stroke-opacity:1;stroke-miterlimit:10;" d="M 39.382812 160.578125 L 35.25 150.917969 "/>
<path style=" stroke:none;fill-rule:nonzero;fill:rgb(100%,100%,100%);fill-opacity:1;" d="M 39.519531 164.734375 L 47.519531 164.734375 L 47.519531 175.734375 L 39.519531 175.734375 Z M 39.519531 164.734375 "/>
<g style="fill:rgb(100%,0%,0%);fill-opacity:1;">
  <use xlink:href="#glyph0-1" x="39.519531" y="173.397461"/>
</g>
<path style="fill:none;stroke-width:1.2;stroke-linecap:butt;stroke-linejoin:miter;stroke:rgb(100%,0%,0%);stroke-opacity:1;stroke-miterlimit:10;" d="M 189.566406 187.714844 L 179.132812 186.46875 "/>
<path style="fill:none;stroke-width:1.2;stroke-linecap:butt;stroke-linejoin:miter;stroke:rgb(0%,0%,0%);stroke-opacity:1;stroke-miterlimit:10;" d="M 179.132812 186.46875 L 168.699219 185.21875 "/>
<path style=" stroke:none;fill-rule:nonzero;fill:rgb(100%,100%,100%);fill-opacity:1;" d="M 185.566406 182.214844 L 193.566406 182.214844 L 193.566406 193.214844 L 185.566406 193.214844 Z M 185.566406 182.214844 "/>
<g style="fill:rgb(100%,0%,0%);fill-opacity:1;">
  <use xlink:href="#glyph0-1" x="185.566406" y="190.87793"/>
</g>
</g>
</svg>

<svg xmlns="http://www.w3.org/2000/svg" xmlns:xlink="http://www.w3.org/1999/xlink" width="300pt" height="300pt" viewBox="0 0 300 300"><defs><symbol overflow="visible"><path d="M.453 1.594v-7.938h4.5v7.938zm.5-.5h3.5v-6.938h-3.5zm0 0"/></symbol><symbol overflow="visible" id="a"><path d="M3.547-5.953c-.65 0-1.164.242-1.547.72-.375.48-.563 1.13-.563 1.952 0 .835.188 1.49.563 1.967.383.48.898.72 1.547.72.644 0 1.156-.24 1.53-.72.376-.476.564-1.132.564-1.968 0-.822-.187-1.474-.562-1.954-.375-.477-.887-.72-1.53-.72zm0-.734c.914 0 1.648.312 2.203.937.55.617.828 1.438.828 2.47 0 1.042-.277 1.87-.828 2.483-.555.617-1.29.922-2.203.922-.93 0-1.668-.305-2.22-.922C.774-1.41.5-2.237.5-3.28c0-1.033.273-1.853.828-2.47.55-.625 1.29-.938 2.22-.938zm0 0"/></symbol><symbol overflow="visible" id="b"><path d="M.89-6.563H2.08l2.906 5.485v-5.484h.86V0H4.656L1.75-5.484V0H.89zm0 0"/></symbol><symbol overflow="visible" id="c"><path d="M.89-6.563h.876v2.688H5v-2.688h.89V0H5v-3.125H1.766V0H.89zm0 0"/></symbol></defs><g><path fill="#fff" d="M0 0h300v300H0z"/><path d="M264.75 178.387l-4.133-9.657" stroke-width="1.2" stroke="#000" stroke-miterlimit="10" fill="none"/><path d="M260.617 168.73l-4.137-9.66M256.48 159.07l-10.43-1.246" stroke-width="1.2" stroke="#f00" stroke-miterlimit="10" fill="none"/><path d="M246.05 157.824l-10.433-1.25" stroke-width="1.2" stroke="#000" stroke-miterlimit="10" fill="none"/><path d="M252.48 153.57h8v11h-8zm0 0" fill="#fff"/><use xlink:href="#a" x="252.48" y="162.233" fill="#f00"/><path d="M235.617 156.574l-12.594 16.82M230.398 155.293l-10.074 13.457M227.348 137.258l8.27 19.316M223.023 173.395l-20.863-2.5M202.16 170.895l-8.27-19.317M205.88 167.02l-6.618-15.454M202.16 170.895l-6.297 8.41" stroke-width="1.2" stroke="#000" stroke-miterlimit="10" fill="none"/><path d="M195.863 179.305l-6.297 8.41" stroke-width="1.2" stroke="#f00" stroke-miterlimit="10" fill="none"/><path d="M193.89 151.578l12.594-16.82M193.89 151.578l-20.863-2.496M206.484 134.758l20.864 2.5M207.984 139.918l16.692 2M173.027 149.082l-4.136-9.66" stroke-width="1.2" stroke="#000" stroke-miterlimit="10" fill="none"/><path d="M168.89 139.422l-4.132-9.656M164.758 129.766l-10.434-1.25" stroke-width="1.2" stroke="#00f" stroke-miterlimit="10" fill="none"/><path d="M154.324 128.516l-10.43-1.246" stroke-width="1.2" stroke="#000" stroke-miterlimit="10" fill="none"/><path d="M157.758 124.266h14v11h-14zm0 0" fill="#fff"/><g fill="#00f"><use xlink:href="#b" x="157.758" y="132.929"/><use xlink:href="#c" x="164.735" y="132.929"/></g><path d="M143.895 127.27l-4.137-9.66" stroke-width="1.2" stroke="#000" stroke-miterlimit="10" fill="none"/><path d="M139.758 117.61l-4.133-9.66" stroke-width="1.2" stroke="#00f" stroke-miterlimit="10" fill="none"/><path d="M138.523 127.28l-3.308-7.725" stroke-width="1.2" stroke="#000" stroke-miterlimit="10" fill="none"/><path d="M135.215 119.555l-3.31-7.727" stroke-width="1.2" stroke="#00f" stroke-miterlimit="10" fill="none"/><path d="M131.3 144.086l12.595-16.816" stroke-width="1.2" stroke="#000" stroke-miterlimit="10" fill="none"/><path d="M135.625 107.95l-10.434-1.247" stroke-width="1.2" stroke="#00f" stroke-miterlimit="10" fill="none"/><path d="M125.19 106.703l-10.428-1.25" stroke-width="1.2" stroke="#000" stroke-miterlimit="10" fill="none"/><path d="M132.625 102.45h7v11h-7zm0 0" fill="#fff"/><use xlink:href="#b" x="132.625" y="111.112" fill="#00f"/><path d="M114.762 105.453l-6.297 8.41" stroke-width="1.2" stroke="#000" stroke-miterlimit="10" fill="none"/><path d="M108.465 113.863l-6.297 8.41" stroke-width="1.2" stroke="#00f" stroke-miterlimit="10" fill="none"/><path d="M117.46 110.098l-5.038 6.73" stroke-width="1.2" stroke="#000" stroke-miterlimit="10" fill="none"/><path d="M112.422 116.828l-5.04 6.727M102.168 122.273l4.133 9.657" stroke-width="1.2" stroke="#00f" stroke-miterlimit="10" fill="none"/><path d="M106.3 131.93l4.134 9.66" stroke-width="1.2" stroke="#000" stroke-miterlimit="10" fill="none"/><path d="M99.168 116.773h7v11h-7zm0 0" fill="#fff"/><use xlink:href="#b" x="99.168" y="125.437" fill="#00f"/><path d="M110.434 141.59l20.867 2.496M113.11 136.93l16.69 2M110.434 141.59L97.84 158.41M97.84 158.41l-20.863-2.496M95.168 163.07l-16.69-2M106.11 177.727l-8.27-19.317M76.977 155.914L64.383 172.73M64.383 172.73l8.27 19.32M69.754 172.72l6.617 15.452M64.383 172.73l-10.434-1.246" stroke-width="1.2" stroke="#000" stroke-miterlimit="10" fill="none"/><path d="M53.95 171.484l-10.43-1.25" stroke-width="1.2" stroke="#f00" stroke-miterlimit="10" fill="none"/><path d="M72.652 192.05l20.864 2.497M93.516 194.547l12.593-16.82M90.816 189.902l10.08-13.457" stroke-width="1.2" stroke="#000" stroke-miterlimit="10" fill="none"/><path d="M43.52 170.234l-4.137-9.656" stroke-width="1.2" stroke="#f00" stroke-miterlimit="10" fill="none"/><path d="M39.383 160.578l-4.133-9.66" stroke-width="1.2" stroke="#000" stroke-miterlimit="10" fill="none"/><path d="M39.52 164.734h8v11h-8zm0 0" fill="#fff"/><use xlink:href="#a" x="39.52" y="173.397" fill="#f00"/><path d="M189.566 187.715l-10.433-1.246" stroke-width="1.2" stroke="#f00" stroke-miterlimit="10" fill="none"/><path d="M179.133 186.47l-10.434-1.25" stroke-width="1.2" stroke="#000" stroke-miterlimit="10" fill="none"/><path d="M185.566 182.215h8v11h-8zm0 0" fill="#fff"/><use xlink:href="#a" x="185.566" y="190.878" fill="#f00"/></g></svg>
